material/.icons/material/dice-d10.svg

<svg xmlns="http://www.w3.org/2000/svg" viewBox="0 0 24 24"><path d="M15 10.5v2.77c0 .58-.5 1.06-1.08 1.06-.58 0-1.06-.47-1.06-1.06V10.5c0-.59.48-1.06 1.06-1.06.58 0 1.08.47 1.08 1.06m6.5 2.7l-8.3 8.3c-.7.7-1.7.7-2.4 0l-8.3-8.3c-.7-.7-.7-1.7 0-2.4l8.3-8.3c.7-.7 1.7-.7 2.4 0l8.3 8.3c.6.7.6 1.7 0 2.4m-11.12-5h-.16L7.08 9.32v1.23l1.8-.55v5.79h1.5V8.2m6.12 2.37a2.57 2.57 0 10-5.14 0v2.64c0 1.42 1.14 2.57 2.57 2.57a2.57 2.57 0 002.57-2.57v-2.64z"/></svg>

<?xml version="1.0" encoding="UTF-8"?><!DOCTYPE svg PUBLIC "-//W3C//DTD SVG 1.1//EN" "http://www.w3.org/Graphics/SVG/1.1/DTD/svg11.dtd"><svg xmlns="http://www.w3.org/2000/svg" xmlns:xlink="http://www.w3.org/1999/xlink" version="1.1" id="mdi-dice-d10" width="24" height="24" viewBox="0 0 24 24"><path d="M15 10.5V13.27C15 13.85 14.5 14.33 13.92 14.33C13.34 14.33 12.86 13.86 12.86 13.27V10.5C12.86 9.91 13.34 9.44 13.92 9.44C14.5 9.44 15 9.91 15 10.5M21.5 13.2L13.2 21.5C12.5 22.2 11.5 22.2 10.8 21.5L2.5 13.2C1.8 12.5 1.8 11.5 2.5 10.8L10.8 2.5C11.5 1.8 12.5 1.8 13.2 2.5L21.5 10.8C22.1 11.5 22.1 12.5 21.5 13.2M10.38 8.2H10.22L7.08 9.32V10.55L8.88 10V15.79H10.38V8.2M16.5 10.57C16.5 9.15 15.35 8 13.93 8S11.36 9.15 11.36 10.57V13.21C11.36 14.63 12.5 15.78 13.93 15.78C15.35 15.78 16.5 14.63 16.5 13.21V10.57Z" /></svg>
